-----BEGIN PGP PUBLIC KEY BLOCK-----

mQINBGrH+E8BEADUWx3qhXtkBksNhIm7hVfjuqMV+3mW2fl+9Lr4fdPYvnuPgCk4
PdfH9AvG4AiXbFenGcuT2Sr3bA2oqcBCqI9XkYIUqFxGC2/aVAg7Mdt8P76zekAj
B5cTyXsYH/wryKfEm5Rdg8FhI8JXOg7vjbzvSZddFj8tG3P/tPBemi2u4zWm3IVJ
8zCN2QTzcrB0xBq597VrrgoLLf+jNZzTH3LYBscLNg10VE3p02d5A6hDUbehefem
5YTHXepqJcnflaibZ3jcGeiqf1P5Js6Nt9F+flWA9GWZujlKTjTYxxXK7NSuCeOU
tbLckwvITMpjFPx6VtZqMX7yCzelKGmSYN9ep+FVjvOvzSqlnJ763vaXTcJbLLUg
3HE/cQe2kyzf9GmVJqk4xeoqLF4x595XuISLDcUUnO5sVGB5AyThZY3L6+HcGi9G
q979C9Gk9F3GL3U7oZjaSkp7qgxUtD4Qdigf28SwLeaSrDlX7SEJdTr0NI8AXUQq
RhWFv0yBaq2ZpxO6tdqMsx5qMIVoT+sPseXoCdLiGqegy62Grz6QA9+00gtvUNu7
c6EL555W379xjo2//+yXJ5Z8cYcea0fu6mg8rahDYfBCsWTHdCtmhESJC2wgrPX0
lyrIOMNbd7wL9xyTLMqFdfLZMV5bANTcD4p+WPaDEBrNa/zX6ZhTp+ROrQARAQAB
tC9DdHhPUyBBcmNoaXZlIFNpZ25pbmcgPGFyY2hpdmVAY3R4b3MuZ2l0aHViLmlv
PokCVwQTAQoAQRYhBJtAjVxFovCj0xCljdMxqWFteLZ+BQJqx/hPAhsDBQkDwmcA
BQsJCAcCAiICBhUKCQgLAgQWAgMBAh4HAheAAAoJENMxqWFteLZ+6pcP/jEetwPe
d1PFckOBg+1DNAfwa5sNMF00nYEBW6KZFxxzFLwkcNZfjpTW+t2E2zqyDjsH+XS+
tFCSWwTg0siEs8GCIuD8+vOdXN17CHmTbbTW+vg2dvcKr7AbUR28D5ieq50hO0nV
gKD7ZOQ5/KRthTHcopSeXXXNwwG0kHokS/+creabplNNW1qHp8sghDnuUJx/0VgJ
9/8hJeKzAq/eBn+eYeic4a9/OC5QWZz61kswgliYHOqH9KWFexlbAOoGPumAP1B6
HRbU1jg1+54JqoEj67T6b0VztA/mBNjTY9i6ym9QHOmSvrO3Twj0ArR/3vPHiAss
tOWvD53DtV1s6I0iF0rAWIiIp4kpWoqLTSfXaYWJJF78VwtcqtyYODw1qIDl2cgR
oHuKx7d1iEg6Vv/8f/3h0uQTQzNEMUXed2Ig3yQiLsH85BUc1KHSBzKoymrFTz/c
aMOD5rzWzmfZxGQq5X2IeKy1UMc/Mgl/Yy9N6Ybo7DHAbRNZQuwlmv1+kREIGaHo
rJqZTJlSAzdhvodos1Sd7OBCWdxP58AwkQP1iaR0i6qZGvRerZsMHTDTz92iryOB
jAYjQbM26VyzjyHJrXgABRe/HDhURsr6/2D1mgHXLCPvaW1trEPazcKZ8sM71Uig
eb9wwgR2ssdjQ1Z9NnA0NxqJ50sLbdsNgoqKuQINBGrH+E8BEADd8oUbp2yIR8E3
uCQ4bGqWQ4SOCeYLKLRF7EQxnyz3mxryptpg14thrxOPihhGC8P+TT5m9AvHMUWD
31CE9BMiJxUHCcgOkB/x+s/X+c7hqqeSU46yvJ4B/1XFmx623Ur3Obeu36dMKKlk
/NOKZe66qQmBE4ZJSuSmKUbfYASA3I0bCMWV1locrX7hm6dKmu0Vkx1eXEz4czhs
FarpgZjMtJ2tcznOmSk/8KcGcxySBiM/B7mZh5lWeh1Mj5FQjGGFDYLEgQTK9pqy
xoTT4qyqYOwXwcKef/sqgBKh82egMlv5OVPFwK7D2aHcyZ0xOtgVAvLNsjTxNTmV
fNcTVRq5apLGIxzav4tP3HIYfUM8CttrOp/q6VzZblo4E1ZwVH8bNogkEZy2PRCI
SmIy7zChKntgWrd/AyvNHu39vk8Uf4stR6CgHd67NsvXlDWMy3UZ3ewWi8ySj4Kp
26gAjMQ9On/QFjCHaMa52+SMyZLM1rM1h66O8Q49tGknCIZi+9VznumnVGKOZUwl
IRM0ez4lEgG9Dib67o7WKoyIlh4KB5P5Gpe9WQnC/oy7m8YVi9v2fw2Pwi9xFiDz
4uS0L/DmRNlF393R+aWnmEN18JjayyzlUQBV6x62xodhQ5K4HLmTshINB3LJ2IpB
nZbE5x53XiHOWiFSdj6/jRRTcSE4CQARAQABiQRyBBgBCgAmFiEEm0CNXEWi8KPT
EKWN0zGpYW14tn4FAmrH+E8CGwIFCQPCZwACQAkQ0zGpYW14tn7BdCAEGQEKAB0W
IQQOXPIMosg9homXmR400X+C139ZfQUCasf4TwAKCRA00X+C139ZfaxvEAC3xhre
E23Pc7kKvwJt4rH4axx5oj0qMsDUNkxVRoQWSyT1iudPAoLWNTupO25rlwnXmmW4
FbgF6NAteK+bHva0E7dUR+e707VrjP5NeAfjs0oiTLDl3BFXJvzwa31K8TAPtVmM
I2J7VOodWG8sXqM56Dq07j2QB31qz4aN2BFEjUXbm4Q7161DgyG4epN15lw/bs/8
9Q3Sc4jYUJ8tA2gBazqixbXT9TjtgXEXL3Cw6CiqPN2lkOtQA6ZdQzIfZUk0oWvU
KGA3gypkeKz2D2NHJYiHr7QqOfD56HeLlZlXjHy+JfZbQwPcsll2EhIkeNJapsYi
ZMP2DBfdJmaQfzEmprj8hyNzYYnnZFc9fg71ZUEDVMgqvGagTwhJsj8vTG8EPxLt
L7ZTR1IU8/bXX4q48YwvFih5gU5+V8S+iA8V1RNAeSsNnVmUEsfCFYnMQwNnJ90V
2QCGtlsMUKUIrSAGHtFAubJ2rJ284FqvaISTQfhgxcLqQSZTd7egBBnqtpMeHqg9
jH9I0FQXylxvJrroS3y78mOINPiVqWJeLHfeXOcTtQKcpxpa4a9QPHviWrHuMutm
w2/Ycxxj+2YmXmpzsLfd9sz62e0+bLtHuLfaOQp0n7hsdhcBGDxL82FjGLpIvOCe
4BoduNwIlfJXbD33Qtz34/UrtJJuexS/as5B3fIVD/0fKceaje/GRYbVkf24zUio
cWUC+Hp4zev4A071kK6FVS9C9qu1RTZWnBB9GZDVRkNPgwYH4XLbeLqIE83REWqY
p2g2vyEAxEghBn0/+dD2WrxkGfz3sq7jHIu5b6y2pc4x/JCLi5tbWXlkyI/tZscz
rn8l4ccGApLsSxQ1FAKT6PlKlXNK4Y7BGgGuuOGqPvmDD2u2qrgyZbgfam1yo6p+
oWJy3LQQOHj/hc395fj8/uJ63hj/chfT3ZAaJyBYGA6FSt7So6u/O+ntdku37p9B
8OAKzbUmBewTysHTwui9cPX8fNLQaHW9YbHzsVl6Qajy/mBZ4gexBCUTzNnbVz9U
/kC8c9D0rb9fqP6X3OH4S0gNNCpZ4TzKYp1nV9aIR/v+UT2mGxw+NXihqNF00l7X
og7yqj7ZFuA+Fy2QmJXQAbgc6Ljrnrv31bBH/xC/JapqhZ62QEJYlP9c9ayeVrqa
QzLbSmsecl6ebDfCbjt9XPmzgT3NDU+FzmBW4ueutJgbIPDQJRZuZysro8S17c1o
bLrXw7YwF86ASOZHOOnMnYmbsZvNvACoNsa2bHcNkMyABd9OaVKF29xaU4C2Tldc
yfZeVS15zuo5iZTimYOjY7tjemA8XwC+OiSzlk5T46Qx+EhI108DOnX0yFOhyfM+
4larAMoQ33kWfCSGquoYYQ==
=VJN2
-----END PGP PUBLIC KEY BLOCK-----
